X: 29552
T: Noel Geeson's Smallpipes
R: reel
M: 4/4
K: Gmajor
|:dc|BcdB G3d|cdec A3d|BcdB edcB|AGFG A2 dc|
BcdB G3d|cdec A3d|cBAG FGAF|G2 G2 G2:|
|:d2|gdBd ecAc|gdBd g3d|gdBd edcB|AGFG A3d|
gdBd ecAc|gdBd g3d|cBAG FGAF|G2 G2 G2 d2|
gdBd ecAc|gdBd g3d|gdBd edcB|AGFG A2 dc|
BcdB G3d|cdec A3d|cBAG FGAF|G2 G2 G2||

